X:1
T:A New Name in Glory
T:A New Name in Glory
T:Charles Austin Miles
T:Charles Austin Miles, 1910
T:Public Domain Courtesy of the Cyber Hymnal™
T:Public Domain Courtesy of the Cyber Hymnal™
C:Charles Austin Miles
Z:Public Domain
Z:Courtesy of the Cyber Hymnal™
%%score ( 1 2 ) ( 3 4 )
L:1/8
Q:1/4=110
M:4/4
K:Bb
V:1 treble 
V:2 treble 
V:3 bass 
V:4 bass 
V:1
 [DF][DF][DF][DF] [EG] [DF]3 | [DB]2 [Ec]2 [Fd]4 | [Ec][Ec][Ec][Ec] [Ec]2 [Fd][Ec] (B4 F2) z2 | %3
w: 1.~I was once a sin- ner,|but I came|Par- don to re- ceive from my Lord: *|
w: 2.~I was hum- bly kneel- ing|at the cross,|Fear- ing naught but God’s ang- ry frown; *|
w: 3.~In the Book ’tis writ- ten,|“Saved by Grace,”|O the joy that came to my soul! *|
 [DF][DF][DF][DF] [EG] [DF]3 | [DB]2 [Ec]2 [Fd]4 | [=EG][EA][EB][EA] [EB]2 [Ed]2 c6 || %6
w: This was free- ly giv- en,|and I found|That He al- ways kept His word.|
w: When the heav- ens o- pened|and I saw|That my name was writ- ten down.|
w: Now I am for- giv- en,|and I know|By the blood I am made whole.|
"^Refrain" [EF]>[EF] | [DB] [DB]3 [Fd][Fd][Fd][Fd] | [Ec][DB]- [DB]4 [DB][DB] | %9
w: |||
w: There’s a|new name writ- ten down in|glor- y, * And it’s|
w: |||
 [EG]4 z [GB][GB][GB] | [DF]6 [DF]>[DF] | [CE]2 [EF]2 [EA][EF][EG][EA] | [DB][Fd]- [Fd]4 [DB]2 | %13
w: ||||
w: mine, O yes, it’s|mine! And the|white robed an- gels sing the|stor- y, * “A|
w: ||||
 [=EG]2 [Ec]2 [Ec]2 [Ed]2 | [Ec]4 z [EF][EF][EF] | [DB] [DB]3 [Fd][Fd][Fd][Fd] | %16
w: |||
w: sin- ner has come|home.” For there’s a|new name writ- ten down in|
w: |||
 [Ec][DB]- [DB]4 [DB][DB] | [EG]4 z [GB][GB][GB] | [DF]6 [DF]>[DF] | [EG]2 [EB]2 [Ec][EB][EG][EB] | %20
w: ||||
w: glor- y, * And it’s|mine, O yes, it’s|mine! With my|sins for- giv- en I am|
w: ||||
 [DF]2 [DB]2 [Fd]2 [Ge]2 | [Fd]3 [DB] [Ec]2 [CA]2 | [DB]6 z2 |] %23
w: |||
w: bound for Heav- en,|Ne- ver more to|roam.|
w: |||
V:2
 x8 | x8 | x8 D8 | x8 | x8 | x8 (_E2 AG F2) || x2 | x8 | x8 | x8 | x8 | x8 | x8 | x8 | x8 | x8 | %16
 x8 | x8 | x8 | x8 | x8 | x8 | x8 |] %23
V:3
 [B,,B,][B,,B,][B,,B,][B,,B,] [B,,B,] [B,,B,]3 | F,2 [F,A,]2 [B,,B,]4 | %2
w: ~ ~ ~ ~ ~ ~|~ ~ ~|
 [F,A,][F,A,][F,A,][F,A,] [F,A,]2 [F,B,][F,A,] (F,4 B,2) z2 | %3
w: ~ ~ ~ ~ ~ ~ ~ ~ *|
 [B,,B,][B,,B,][B,,B,][B,,B,] [B,,B,] [B,,B,]3 | [B,,B,]2 [F,A,]2 [B,,B,]4 | %5
w: ~ ~ ~ ~ ~ ~|~ ~ ~|
 [C,B,][C,A,][C,G,][C,^F,] [C,G,]2 [C,B,]2 (A,2 CB, A,2) || [F,A,]>[F,A,] | %7
w: ~ ~ ~ ~ ~ ~ ~ * * *|~ ~|
 [B,,F,] [B,,F,]3 [B,,B,][B,,B,][B,,B,][B,,B,] | [B,,F,][B,,B,]- [B,,B,]4 z2 | %9
w: ~ ~ ~ ~ ~ ~|~ ~ *|
 z2 [E,B,][E,B,] [E,B,] z z2 | z2 [B,,B,][B,,B,] [B,,B,]2 [B,,B,]>[B,,B,] | %11
w: And it’s mine,|yes it’s mine! ~ ~|
 [F,A,]2 [F,A,]2 [F,C][F,A,][F,B,][F,C] | [B,,B,][B,,B,]- [B,,B,]4 [B,,B,]2 | %13
w: ~ ~ ~ ~ ~ ~|~ ~ * ~|
 [C,B,]2 [C,G,]2 [C,G,]2 [C,B,]2 | A,4 F,[E,A,][D,A,][C,A,] | %15
w: ~ ~ ~ ~|~ has come home ~|
 [B,,B,] [B,,B,]3 [B,,B,][B,,B,][B,,B,][B,,B,] | [B,,F,][B,,B,]- [B,,B,]4 z2 | %17
w: ~ ~ ~ ~ ~ ~|~ ~ *|
 z2 [E,B,][E,B,] [E,B,] z3 | z2 [B,,B,][B,,B,] [B,,B,]2 [B,,B,]>[B,,B,] | %19
w: ~ ~ And|it’s mine, yes it’s mine!|
 [E,B,]2 [E,G,]2 [E,G,][E,G,][E,B,][E,G,] | [B,,B,]2 [B,,F,]2 [B,,B,]2 [E,B,]2 | %21
w: ||
 [F,B,]3 [F,B,] [F,A,]2 F,2 | [B,,F,]6 z2 |] %23
w: ||
V:4
 x8 | F,2 x6 | x8 B,,8 | x8 | x8 | x8 ^F,6 || x2 | x8 | x8 | x8 | x8 | x8 | x8 | x8 | F,2 F,G, x4 | %15
 x8 | x8 | x8 | x8 | x8 | x8 | x6 F,2 | x8 |] %23

